X: 8191
T: Cooley's
R: reel
M: 4/4
K: Edorian
|:D2|"Em"EBBA B2 EB|B2 AB dBAG|"D"FDA2 B2A2|D2A2 BAGF|
"Em"EBBA B2EB|B2 AB defg|"D"afec dBAF|DEFD "Em"E2:|
|:gf|"Em"e2 B2 efge|e2 B2 dedB|"D/H"A2 FA2 AFA|A2 FA defg|
"C"e2 B2 eBgB|"Am"e2 B2 defg|"D/H"afec dBAF|DEFD "Em"E2:|

